X:215
T: ES SPIELTE EIN RITTER MIT EINER MADAM
N: E0110F
O: Europa, Mitteleuropa, Deutschland, Ober - Westerwald; Unter - Taunus
R: erzaehlendes Volks - Lied, Sage, Liebe, Leid, Tod
M: 6/8
L: 1/8
K: Eb
B, | EEGB2c | B2GE2
B | e2edcB | c3B2
B | cccedc | B2AGG
c | B2FA2A | A2BG2

